papirus/32x32/apps/trimage.svg

<svg height="32" viewBox="0 0 32 32.000001" width="32" xmlns="http://www.w3.org/2000/svg"><g transform="translate(0 -1020.3622)"><path d="m25.032778 1027.0392c-8.591536 4.3622-13.980636 11.0731-18.8085273 18.1942 2.2469838.9337 5.1596613 1.8889 8.1735933 2.7234 5.535594-2.9215 10.978552-5.9571 13.283704-12.8532-.806803-2.9387-1.733173-5.7966-2.64877-8.0655z" fill="#9cc7f4"/><path d="m21.838959 1022.3657c-3.803501.3198-20.595559 17.2509-19.8124538 20.1843.1992772.7419 1.8311951 1.696 4.1966682 2.6792l18.8085276-18.1944c-1.051321-2.6059-2.080023-4.4355-2.867436-4.6455-.09479-.025-.203586-.034-.326384-.022z" fill="#63a8d3"/><path d="m27.681548 1035.1047l-13.283704 12.8532c6.767881 1.8748 14.003256 3.1142 15.155831 1.9555 1.137496-1.1382-.04847-8.1463-1.876436-14.8087z" fill="#cde4fd"/><path d="m2.1171875 21.373047c-.10613.330609-.1444896.609757-.0898437.814453.1992772.7419 1.8298394 1.696487 4.1953124 2.679688l.0136719-.013672c-.0039541.00583-.0077653.011747-.0117187.017578 2.2469838.9337 5.1598946 1.888156 8.1738286 2.722656v.001953c6.76788 1.8748 14.001721 3.113778 15.154296 1.955078.341115-.341326.453151-1.254938.421875-2.484375-.047663.716154-.179336 1.239746-.421875 1.482422-1.152575 1.1587-8.386416-.080278-15.154296-1.955078-3.013934-.8345-5.9268448-1.788956-8.1738286-2.722656.003949-.005.0077687-.007578.0117187-.017578l-.0136719.013672c-2.1758456-.904383-3.7152019-1.781435-4.1054687-2.494141z" opacity=".3" transform="translate(0 1020.3622)"/><path d="m21.839844 2.0039062c-3.803501.3198001-20.5956055 17.2501938-19.8125002 20.1835938.0159258.059291.0559902.12168.0898437.183594 1.4179498-4.409226 16.1850125-19.0697411 19.7226565-19.3671878v-.0039062c.121898-.01168.229993-.0014136.324218.0234375.787414.21 1.815867 2.0386312 2.867188 4.6445313l-.015625.015625c.00604 0 .011578-.0097657.017578-.0097657.915386 2.2686 1.841825 5.1264529 2.648438 8.0644529-.0009 0-.001088.009766-.001953.009766 1.279468 4.664766 2.222931 9.452225 2.294921 12.320312.175158-2.642004-.85817-8.080177-2.294921-13.318359.000865-.002585.001088-.005226.001953-.007812-.806613-2.938006-1.733052-5.7958117-2.648438-8.0644536-.006045.0030691-.011536.0066941-.017578.0097656l.015625-.015625c-1.051321-2.6059-2.079774-4.4345314-2.867188-4.6445312-.094789-.0250001-.203373-.0334844-.326171-.0214844z" fill="#fff" opacity=".2" transform="translate(0 1020.3622)"/></g></svg>

<?xml version="1.0" encoding="UTF-8" standalone="no"?>
<!-- Created with Inkscape (http://www.inkscape.org/) -->

<svg
   xmlns:dc="http://purl.org/dc/elements/1.1/"
   xmlns:cc="http://creativecommons.org/ns#"
   xmlns:rdf="http://www.w3.org/1999/02/22-rdf-syntax-ns#"
   xmlns:svg="http://www.w3.org/2000/svg"
   xmlns="http://www.w3.org/2000/svg"
   xmlns:sodipodi="http://sodipodi.sourceforge.net/DTD/sodipodi-0.dtd"
   xmlns:inkscape="http://www.inkscape.org/namespaces/inkscape"
   width="32"
   height="32"
   viewBox="0 0 32 32.000001"
   id="svg4190"
   version="1.1"
   inkscape:version="0.91 r13725"
   sodipodi:docname="trimage.svg">
  <defs
     id="defs4192" />
  <sodipodi:namedview
     id="base"
     pagecolor="#585858"
     bordercolor="#666666"
     borderopacity="1.0"
     inkscape:pageopacity="0"
     inkscape:pageshadow="2"
     inkscape:zoom="7.03"
     inkscape:cx="1.5347092"
     inkscape:cy="19.834476"
     inkscape:document-units="px"
     inkscape:current-layer="layer1"
     showgrid="false"
     units="px"
     inkscape:window-width="1600"
     inkscape:window-height="849"
     inkscape:window-x="0"
     inkscape:window-y="0"
     inkscape:window-maximized="1" />
  <metadata
     id="metadata4195">
    <rdf:RDF>
      <cc:Work
         rdf:about="">
        <dc:format>image/svg+xml</dc:format>
        <dc:type
           rdf:resource="http://purl.org/dc/dcmitype/StillImage" />
        <dc:title></dc:title>
      </cc:Work>
    </rdf:RDF>
  </metadata>
  <g
     inkscape:label="Layer 1"
     inkscape:groupmode="layer"
     id="layer1"
     transform="translate(0,-1020.3622)">
    <path
       inkscape:connector-curvature="0"
       d="m 25.032778,1027.0392 c -8.591536,4.3622 -13.980636,11.0731 -18.8085273,18.1942 2.2469838,0.9337 5.1596613,1.8889 8.1735933,2.7234 5.535594,-2.9215 10.978552,-5.9571 13.283704,-12.8532 -0.806803,-2.9387 -1.733173,-5.7966 -2.64877,-8.0655 z"
       style="opacity:1;fill:#9cc7f4;fill-opacity:1;stroke:none"
       id="path37" />
    <path
       inkscape:connector-curvature="0"
       d="m 21.838959,1022.3657 c -3.803501,0.3198 -20.595559,17.2509 -19.8124538,20.1843 0.1992772,0.7419 1.8311951,1.696 4.1966682,2.6792 l 18.8085276,-18.1944 c -1.051321,-2.6059 -2.080023,-4.4355 -2.867436,-4.6455 -0.09479,-0.025 -0.203586,-0.034 -0.326384,-0.022 z"
       style="opacity:1;fill:#63a8d3;fill-opacity:1;stroke:none"
       id="path39" />
    <path
       inkscape:connector-curvature="0"
       d="m 27.681548,1035.1047 -13.283704,12.8532 c 6.767881,1.8748 14.003256,3.1142 15.155831,1.9555 1.137496,-1.1382 -0.04847,-8.1463 -1.876436,-14.8087 z"
       style="opacity:1;fill:#cde4fd;fill-opacity:1;stroke:none"
       id="path41" />
    <path
       style="opacity:0.3;fill:#000000;fill-opacity:1;stroke:none"
       d="M 2.1171875 21.373047 C 2.0110575 21.703656 1.9726979 21.982804 2.0273438 22.1875 C 2.226621 22.9294 3.8571832 23.883987 6.2226562 24.867188 L 6.2363281 24.853516 C 6.232374 24.859346 6.2285628 24.865263 6.2246094 24.871094 C 8.4715932 25.804794 11.384504 26.75925 14.398438 27.59375 L 14.398438 27.595703 C 21.166318 29.470503 28.400159 30.709481 29.552734 29.550781 C 29.893849 29.209455 30.005885 28.295843 29.974609 27.066406 C 29.926946 27.78256 29.795273 28.306152 29.552734 28.548828 C 28.400159 29.707528 21.166318 28.46855 14.398438 26.59375 C 11.384504 25.75925 8.4715932 24.804794 6.2246094 23.871094 C 6.2285584 23.866094 6.2323781 23.863516 6.2363281 23.853516 L 6.2226562 23.867188 C 4.0468106 22.962805 2.5074543 22.085753 2.1171875 21.373047 z "
       transform="translate(0,1020.3622)"
       id="path4888" />
    <path
       style="opacity:0.2;fill:#ffffff;fill-opacity:1;stroke:none"
       d="M 21.839844 2.0039062 C 18.036343 2.3237063 1.2442385 19.2541 2.0273438 22.1875 C 2.0432696 22.246791 2.083334 22.30918 2.1171875 22.371094 C 3.5351373 17.961868 18.3022 3.3013529 21.839844 3.0039062 L 21.839844 3 C 21.961742 2.98832 22.069837 2.9985864 22.164062 3.0234375 C 22.951476 3.2334375 23.979929 5.0620687 25.03125 7.6679688 L 25.015625 7.6835938 C 25.021665 7.6835938 25.027203 7.6738281 25.033203 7.6738281 C 25.948589 9.9424281 26.875028 12.800281 27.681641 15.738281 C 27.680741 15.738281 27.680553 15.748047 27.679688 15.748047 C 28.959156 20.412813 29.902619 25.200272 29.974609 28.068359 C 30.149767 25.426355 29.116439 19.988182 27.679688 14.75 C 27.680553 14.747415 27.680776 14.744774 27.681641 14.742188 C 26.875028 11.804182 25.948589 8.9463763 25.033203 6.6777344 C 25.027158 6.6808035 25.021667 6.6844285 25.015625 6.6875 L 25.03125 6.671875 C 23.979929 4.065975 22.951476 2.2373436 22.164062 2.0273438 C 22.069273 2.0023437 21.960689 1.9938594 21.837891 2.0058594 L 21.839844 2.0039062 z "
       transform="translate(0,1020.3622)"
       id="path4895" />
  </g>
</svg>
